src/images/mediaLogos/darkTheme/RACFoundation.svg

<svg width="75" height="39" viewBox="0 0 75 39" fill="none" xmlns="http://www.w3.org/2000/svg">
<path d="M32.0535 23.6951C32.4841 23.6951 32.8239 23.609 33.0731 23.4367C33.3252 23.2645 33.4513 22.9539 33.4513 22.5048C33.4513 22.022 33.276 21.6929 32.9254 21.5176C32.7378 21.4253 32.4872 21.3792 32.1734 21.3792H29.9314V23.6951H32.0535ZM29.0133 20.5903H32.1504C32.6671 20.5903 33.093 20.6656 33.4283 20.8164C34.0649 21.1055 34.3832 21.6391 34.3832 22.4172C34.3832 22.8232 34.2987 23.1553 34.1295 23.4137C33.9634 23.672 33.7297 23.8796 33.4283 24.0365C33.6928 24.1441 33.8912 24.2856 34.0234 24.4609C34.1587 24.6362 34.2341 24.9207 34.2495 25.3144L34.2818 26.2232C34.291 26.4815 34.3125 26.6738 34.3463 26.7999C34.4017 27.0152 34.5001 27.1536 34.6416 27.2151V27.3673H33.5159C33.4852 27.3089 33.4606 27.2335 33.4421 27.1413C33.4237 27.049 33.4083 26.8706 33.396 26.6061L33.3406 25.4758C33.3191 25.033 33.1546 24.7362 32.847 24.5855C32.6717 24.5024 32.3964 24.4609 32.0212 24.4609H29.9314V27.3673H29.0133V20.5903Z" fill="#ECECEC"/>
<path d="M39.2088 24.5901L38.18 21.596L37.0867 24.5901H39.2088ZM37.7002 20.5903H38.7383L41.1972 27.3673H40.1915L39.5041 25.3374H36.8237L36.0902 27.3673H35.1491L37.7002 20.5903Z" fill="#ECECEC"/>
<path d="M44.8879 20.4058C45.7459 20.4058 46.4118 20.6318 46.8854 21.0839C47.3591 21.536 47.622 22.0497 47.6743 22.6248H46.7793C46.6778 22.1881 46.4748 21.8421 46.1704 21.5868C45.869 21.3315 45.4445 21.2039 44.8971 21.2039C44.2297 21.2039 43.6899 21.4392 43.2778 21.9097C42.8687 22.3772 42.6642 23.0953 42.6642 24.0642C42.6642 24.8576 42.8488 25.502 43.2178 25.9971C43.59 26.4892 44.1436 26.7353 44.8786 26.7353C45.5553 26.7353 46.0704 26.4754 46.4241 25.9556C46.6117 25.6819 46.7516 25.3221 46.8439 24.8761H47.7389C47.6589 25.5896 47.3944 26.1878 46.9454 26.6707C46.4072 27.252 45.6813 27.5426 44.7679 27.5426C43.9806 27.5426 43.3193 27.3043 42.7842 26.8276C42.0799 26.1971 41.7277 25.2236 41.7277 23.9073C41.7277 22.9077 41.9922 22.0881 42.5212 21.4484C43.0933 20.7533 43.8821 20.4058 44.8879 20.4058Z" fill="#ECECEC"/>
<path d="M28.9902 31.6131H33.6912V32.4435H29.9083V34.5011H33.2345V35.3084H29.9083V38.3902H28.9902V31.6131Z" fill="#ECECEC"/>
<path d="M36.5285 37.855C37.079 37.855 37.4557 37.6474 37.6587 37.2322C37.8648 36.8139 37.9678 36.3495 37.9678 35.839C37.9678 35.3776 37.894 35.0024 37.7464 34.7133C37.5126 34.2581 37.1097 34.0305 36.5377 34.0305C36.0302 34.0305 35.6611 34.2243 35.4305 34.6118C35.1998 34.9993 35.0845 35.4668 35.0845 36.0143C35.0845 36.5402 35.1998 36.9785 35.4305 37.3291C35.6611 37.6797 36.0271 37.855 36.5285 37.855ZM36.5607 33.3062C37.1974 33.3062 37.7356 33.5185 38.1754 33.9429C38.6152 34.3673 38.8351 34.9916 38.8351 35.8159C38.8351 36.6125 38.6414 37.2706 38.2538 37.7904C37.8663 38.3102 37.2651 38.5701 36.45 38.5701C35.7703 38.5701 35.2306 38.3409 34.8307 37.8827C34.4309 37.4213 34.231 36.8032 34.231 36.0281C34.231 35.1977 34.4417 34.5365 34.863 34.0444C35.2844 33.5523 35.8503 33.3062 36.5607 33.3062Z" fill="#ECECEC"/>
<path d="M40.6574 33.4493V36.7293C40.6574 36.9815 40.6974 37.1876 40.7774 37.3475C40.925 37.6428 41.2002 37.7904 41.6031 37.7904C42.1814 37.7904 42.575 37.5321 42.7842 37.0154C42.898 36.7386 42.9549 36.3587 42.9549 35.8759V33.4493H43.7853V38.3902H43.001L43.0102 37.6612C42.9026 37.8489 42.7688 38.0072 42.6089 38.1364C42.2921 38.3948 41.9076 38.5239 41.4555 38.5239C40.7512 38.5239 40.2714 38.2887 40.0162 37.8181C39.8778 37.5659 39.8085 37.2291 39.8085 36.8078V33.4493H40.6574Z" fill="#ECECEC"/>
<path d="M45.0862 33.4493H45.8751V34.1505C46.1089 33.8614 46.3564 33.6538 46.6179 33.5277C46.8793 33.4016 47.1699 33.3385 47.4898 33.3385C48.191 33.3385 48.6647 33.583 48.9107 34.0721C49.046 34.3396 49.1137 34.7225 49.1137 35.2208V38.3902H48.2694V35.2761C48.2694 34.9747 48.2248 34.7318 48.1357 34.5472C47.988 34.2397 47.7205 34.0859 47.3329 34.0859C47.1361 34.0859 46.9746 34.1059 46.8485 34.1459C46.6209 34.2135 46.421 34.3489 46.2488 34.5518C46.1104 34.7148 46.0197 34.884 45.9766 35.0593C45.9366 35.2315 45.9166 35.4791 45.9166 35.8021V38.3902H45.0862V33.4493Z" fill="#ECECEC"/>
<path d="M50.8714 35.9774C50.8714 36.5064 50.9836 36.9492 51.2081 37.306C51.4327 37.6628 51.7925 37.8412 52.2877 37.8412C52.6721 37.8412 52.9874 37.6766 53.2334 37.3475C53.4825 37.0154 53.6071 36.5402 53.6071 35.922C53.6071 35.2977 53.4795 34.8363 53.2242 34.538C52.9689 34.2366 52.6537 34.0859 52.2784 34.0859C51.8602 34.0859 51.5203 34.2458 51.2589 34.5657C51.0005 34.8855 50.8714 35.3561 50.8714 35.9774ZM52.1216 33.3616C52.4999 33.3616 52.8167 33.4416 53.0719 33.6015C53.2196 33.6938 53.3872 33.8552 53.5748 34.0859V31.5901H54.3729V38.3902H53.6255V37.7028C53.4318 38.0072 53.2027 38.2271 52.9382 38.3625C52.6737 38.4978 52.3707 38.5655 52.0293 38.5655C51.4788 38.5655 51.0021 38.3348 50.5992 37.8735C50.1963 37.409 49.9948 36.7924 49.9948 36.0235C49.9948 35.3038 50.1778 34.681 50.5438 34.1551C50.9129 33.6261 51.4388 33.3616 52.1216 33.3616Z" fill="#ECECEC"/>
<path d="M56.2413 37.0753C56.2413 37.3152 56.329 37.5044 56.5043 37.6428C56.6796 37.7812 56.8872 37.8504 57.1271 37.8504C57.4193 37.8504 57.7022 37.7827 57.9759 37.6474C58.4373 37.4229 58.6679 37.0554 58.6679 36.5448V35.8759C58.5664 35.9405 58.4357 35.9943 58.2758 36.0373C58.1159 36.0804 57.959 36.1112 57.8052 36.1296L57.3024 36.1942C57.001 36.2342 56.7749 36.2972 56.6242 36.3833C56.369 36.5279 56.2413 36.7586 56.2413 37.0753ZM58.2527 35.3961C58.4434 35.3715 58.5711 35.2915 58.6356 35.1562C58.6726 35.0824 58.691 34.9763 58.691 34.8379C58.691 34.5549 58.5895 34.3504 58.3865 34.2243C58.1866 34.0951 57.899 34.0305 57.5238 34.0305C57.0902 34.0305 56.7826 34.1474 56.6012 34.3811C56.4997 34.5103 56.4335 34.7025 56.4028 34.9578H55.6277C55.6431 34.3489 55.84 33.926 56.2183 33.6891C56.5996 33.4493 57.041 33.3293 57.5423 33.3293C58.1236 33.3293 58.5957 33.44 58.9586 33.6615C59.3184 33.8829 59.4983 34.2274 59.4983 34.6949V37.5413C59.4983 37.6274 59.5153 37.6966 59.5491 37.7489C59.586 37.8012 59.6614 37.8273 59.7751 37.8273C59.8121 37.8273 59.8536 37.8258 59.8997 37.8227C59.9458 37.8166 59.995 37.8089 60.0473 37.7996V38.4132C59.9182 38.4501 59.8197 38.4732 59.7521 38.4824C59.6844 38.4916 59.5921 38.4963 59.4753 38.4963C59.1893 38.4963 58.9816 38.3948 58.8525 38.1918C58.7848 38.0841 58.7371 37.9319 58.7095 37.7351C58.5403 37.9565 58.2973 38.1487 57.9806 38.3117C57.6638 38.4747 57.3147 38.5562 56.9333 38.5562C56.4751 38.5562 56.0998 38.4178 55.8077 38.141C55.5186 37.8612 55.374 37.5121 55.374 37.0938C55.374 36.6355 55.517 36.2803 55.803 36.0281C56.0891 35.7759 56.4643 35.6206 56.9287 35.5622L58.2527 35.3961Z" fill="#ECECEC"/>
<path d="M61.03 32.0699H61.8696V33.4493H62.6585V34.1274H61.8696V37.3521C61.8696 37.5244 61.928 37.6397 62.0449 37.6982C62.1095 37.732 62.2171 37.7489 62.3679 37.7489C62.4078 37.7489 62.4509 37.7489 62.497 37.7489C62.5432 37.7458 62.597 37.7412 62.6585 37.7351V38.3902C62.5631 38.4178 62.4632 38.4378 62.3586 38.4501C62.2571 38.4624 62.1464 38.4686 62.0265 38.4686C61.6389 38.4686 61.376 38.3702 61.2376 38.1733C61.0992 37.9734 61.03 37.7151 61.03 37.3983V34.1274H60.361V33.4493H61.03V32.0699Z" fill="#ECECEC"/>
<path d="M63.4935 33.4723H64.3378V38.3902H63.4935V33.4723ZM63.4935 31.6131H64.3378V32.5543H63.4935V31.6131Z" fill="#ECECEC"/>
<path d="M67.5579 37.855C68.1084 37.855 68.4852 37.6474 68.6881 37.2322C68.8942 36.8139 68.9972 36.3495 68.9972 35.839C68.9972 35.3776 68.9234 35.0024 68.7758 34.7133C68.5421 34.2581 68.1392 34.0305 67.5671 34.0305C67.0596 34.0305 66.6906 34.2243 66.4599 34.6118C66.2292 34.9993 66.1139 35.4668 66.1139 36.0143C66.1139 36.5402 66.2292 36.9785 66.4599 37.3291C66.6906 37.6797 67.0566 37.855 67.5579 37.855ZM67.5902 33.3062C68.2268 33.3062 68.765 33.5185 69.2048 33.9429C69.6446 34.3673 69.8646 34.9916 69.8646 35.8159C69.8646 36.6125 69.6708 37.2706 69.2833 37.7904C68.8957 38.3102 68.2945 38.5701 67.4794 38.5701C66.7997 38.5701 66.26 38.3409 65.8602 37.8827C65.4603 37.4213 65.2604 36.8032 65.2604 36.0281C65.2604 35.1977 65.4711 34.5365 65.8925 34.0444C66.3138 33.5523 66.8797 33.3062 67.5902 33.3062Z" fill="#ECECEC"/>
<path d="M70.8564 33.4493H71.6453V34.1505C71.879 33.8614 72.1266 33.6538 72.3881 33.5277C72.6495 33.4016 72.9401 33.3385 73.26 33.3385C73.9612 33.3385 74.4348 33.583 74.6809 34.0721C74.8162 34.3396 74.8839 34.7225 74.8839 35.2208V38.3902H74.0396V35.2761C74.0396 34.9747 73.995 34.7318 73.9058 34.5472C73.7582 34.2397 73.4906 34.0859 73.1031 34.0859C72.9063 34.0859 72.7448 34.1059 72.6187 34.1459C72.3911 34.2135 72.1912 34.3489 72.019 34.5518C71.8806 34.7148 71.7899 34.884 71.7468 35.0593C71.7068 35.2315 71.6868 35.4791 71.6868 35.8021V38.3902H70.8564V33.4493Z" fill="#ECECEC"/>
<path d="M23.459 0.730678V6.36555C23.2486 6.37902 23.0787 6.3952 22.9196 6.40328C20.7618 6.50838 18.569 6.48413 16.422 6.75091C14.275 7.0177 12.3762 8.06598 10.8064 9.61281C8.78366 11.5445 7.50362 14.1243 7.18945 16.9023C7.0519 18.0961 6.97907 19.3034 6.96019 20.5053C6.91973 22.7905 6.94131 25.0865 6.93591 27.3636V28.552L7.12202 28.5816C7.25583 28.2736 7.36232 27.9544 7.44029 27.6277C7.91283 24.2871 9.63279 21.2488 12.2548 19.1228C13.7949 17.8347 15.6074 17.0909 17.5575 16.5951C19.5076 16.0992 21.4361 16.0561 23.4563 16.1073V21.8796C23.2163 21.8796 22.9816 21.8796 22.7442 21.8796C20.5433 21.9524 18.4071 22.2542 16.484 23.4696C14.9116 24.4613 13.8596 25.8222 13.5171 27.6385C13.2636 28.9245 13.1103 30.2282 13.0586 31.5379C12.9858 33.8419 13.0397 36.1514 13.0397 38.5148H0.632544V37.8437C0.632544 32.0391 0.610967 26.2318 0.646031 20.4271C0.646031 18.8695 0.646033 17.2769 0.964304 15.7624C2.24278 9.49963 5.34726 4.54655 11.4834 1.97299C13.4228 1.13268 15.5165 0.706764 17.6303 0.722594C19.5427 0.754931 21.4685 0.730678 23.459 0.730678Z" fill="#ECECEC"/>
</svg>

<svg fill="none" height="39" width="75" xmlns="http://www.w3.org/2000/svg"><path d="m32.053 23.695c.431 0 .77-.086 1.02-.258.252-.172.378-.483.378-.932 0-.483-.175-.812-.526-.987-.187-.093-.438-.139-.752-.139h-2.242v2.316zm-3.04-3.105h3.137c.517 0 .943.076 1.278.226.637.29.955.823.955 1.601 0 .406-.084.738-.254.997a1.8 1.8 0 0 1 -.7.622c.264.108.462.25.594.425.136.175.211.46.226.853l.033.91c.009.258.03.45.064.576.056.215.154.354.296.415v.152h-1.126a.85.85 0 0 1 -.074-.226 4.354 4.354 0 0 1 -.046-.535l-.055-1.13c-.022-.443-.186-.74-.494-.89-.175-.084-.45-.125-.826-.125h-2.09v2.906h-.918zm10.196 4-1.029-2.994-1.093 2.994zm-1.509-4h1.038l2.46 6.777h-1.008l-.687-2.03h-2.68l-.734 2.03h-.94l2.55-6.777zm7.188-.184c.858 0 1.524.226 1.997.678.474.452.737.966.79 1.54h-.896c-.101-.436-.304-.782-.609-1.037-.301-.256-.726-.383-1.273-.383-.667 0-1.207.235-1.62.706-.408.467-.613 1.185-.613 2.154 0 .794.185 1.438.554 1.933.372.492.926.738 1.66.738.677 0 1.192-.26 1.546-.78.188-.273.328-.633.42-1.079h.895c-.08.714-.345 1.312-.794 1.795-.538.581-1.264.872-2.177.872-.787 0-1.449-.239-1.984-.715-.704-.63-1.056-1.604-1.056-2.92 0-1 .264-1.82.793-2.46.572-.695 1.361-1.042 2.367-1.042zm-15.898 11.207h4.701v.83h-3.783v2.058h3.326v.807h-3.326v3.082h-.918zm7.539 6.242c.55 0 .927-.208 1.13-.623.206-.418.309-.883.309-1.393 0-.461-.074-.837-.222-1.126-.233-.455-.636-.682-1.208-.682-.508 0-.877.193-1.107.58-.231.388-.346.856-.346 1.403 0 .526.115.964.346 1.315.23.35.596.526 1.098.526zm.032-4.549c.636 0 1.175.213 1.614.637.44.424.66 1.049.66 1.873 0 .796-.194 1.455-.581 1.974-.388.52-.989.78-1.804.78-.68 0-1.22-.23-1.62-.687-.4-.462-.599-1.08-.599-1.855 0-.83.21-1.492.632-1.984.421-.492.987-.738 1.698-.738zm4.096.143v3.28c0 .252.04.459.12.618.148.296.423.443.826.443.578 0 .972-.258 1.181-.775.114-.276.17-.656.17-1.14v-2.425h.831v4.941h-.784l.01-.729a1.674 1.674 0 0 1 -.402.475c-.317.259-.701.388-1.154.388-.704 0-1.184-.235-1.439-.706-.138-.252-.207-.589-.207-1.01v-3.359h.848zm4.43 0h.788v.702c.234-.29.481-.497.743-.623a1.98 1.98 0 0 1 .872-.19c.701 0 1.175.245 1.42.734.136.268.204.65.204 1.149v3.17h-.845v-3.115c0-.301-.044-.544-.133-.729-.148-.307-.416-.461-.803-.461-.197 0-.358.02-.484.06a1.247 1.247 0 0 0 -.6.406c-.139.163-.23.332-.272.507-.04.172-.06.42-.06.743v2.588h-.83v-4.94zm5.784 2.528c0 .53.113.972.337 1.329.225.357.584.535 1.08.535.384 0 .7-.164.945-.494.25-.332.374-.807.374-1.425 0-.624-.127-1.086-.383-1.384-.255-.301-.57-.452-.946-.452-.418 0-.758.16-1.02.48-.258.32-.387.79-.387 1.411zm1.25-2.615c.379 0 .696.08.95.24.149.092.316.253.504.484v-2.496h.798v6.8h-.747v-.687c-.194.304-.423.524-.688.66a1.968 1.968 0 0 1 -.909.203c-.55 0-1.027-.231-1.43-.693-.403-.464-.604-1.08-.604-1.85 0-.72.183-1.342.549-1.868.369-.529.895-.793 1.578-.793zm4.12 3.713c0 .24.088.43.263.568a.975.975 0 0 0 .623.207c.292 0 .575-.067.849-.203.461-.224.692-.592.692-1.102v-.67a1.419 1.419 0 0 1 -.392.162c-.16.043-.317.074-.47.093l-.504.064c-.301.04-.527.103-.678.19-.255.144-.383.375-.383.691zm2.012-1.679c.19-.025.318-.105.383-.24a.728.728 0 0 0 .055-.318c0-.283-.102-.488-.305-.614-.2-.129-.487-.193-.862-.193-.434 0-.741.116-.923.35-.101.13-.167.322-.198.577h-.775c.015-.61.212-1.032.59-1.269.382-.24.823-.36 1.324-.36.582 0 1.054.111 1.417.332.36.222.54.566.54 1.034v2.846c0 .086.016.156.05.208.037.052.112.078.226.078.037 0 .079-.001.125-.004.046-.006.095-.014.147-.023v.613c-.129.037-.227.06-.295.07-.068.009-.16.013-.277.013-.286 0-.493-.101-.623-.304a1.174 1.174 0 0 1 -.142-.457c-.17.221-.413.414-.73.577a2.255 2.255 0 0 1 -1.047.244c-.458 0-.833-.138-1.125-.415a1.398 1.398 0 0 1 -.434-1.047c0-.459.143-.814.429-1.066s.661-.407 1.126-.466zm2.777-3.326h.84v1.38h.788v.677h-.788v3.225c0 .172.058.288.175.346.064.034.172.05.323.05h.129c.046-.002.1-.007.161-.013v.655a1.858 1.858 0 0 1 -.3.06 2.77 2.77 0 0 1 -.331.019c-.388 0-.651-.099-.79-.296-.138-.2-.207-.458-.207-.775v-3.27h-.669v-.679h.669v-1.38zm2.463 1.402h.845v4.918h-.844v-4.918zm0-1.859h.845v.941h-.844v-.94zm4.065 6.242c.55 0 .927-.208 1.13-.623.206-.418.31-.883.31-1.393 0-.461-.075-.837-.222-1.126-.234-.455-.637-.682-1.209-.682-.507 0-.876.193-1.107.58-.23.388-.346.856-.346 1.403 0 .526.115.964.346 1.315.23.35.597.526 1.098.526zm.032-4.549c.637 0 1.175.213 1.615.637s.66 1.049.66 1.873c0 .796-.194 1.455-.582 1.974-.387.52-.989.78-1.804.78-.68 0-1.219-.23-1.619-.687-.4-.462-.6-1.08-.6-1.855 0-.83.211-1.492.632-1.984.422-.492.988-.738 1.698-.738zm3.266.143h.79v.702c.233-.29.48-.497.742-.623a1.98 1.98 0 0 1 .872-.19c.701 0 1.175.245 1.42.734.136.268.204.65.204 1.149v3.17h-.844v-3.115c0-.301-.045-.544-.134-.729-.148-.307-.415-.461-.803-.461-.197 0-.358.02-.484.06a1.247 1.247 0 0 0 -.6.406c-.138.163-.23.332-.272.507-.04.172-.06.42-.06.743v2.588h-.83v-4.94zm-47.396-32.718v5.635c-.21.013-.38.03-.54.037-2.157.105-4.35.081-6.497.348s-4.046 1.315-5.616 2.862a11.934 11.934 0 0 0 -3.617 7.29 36.55 36.55 0 0 0 -.229 3.602c-.04 2.286-.019 4.582-.024 6.859v1.188l.186.03c.134-.308.24-.628.318-.954a13.358 13.358 0 0 1 4.815-8.505c1.54-1.288 3.352-2.032 5.303-2.528 1.95-.496 3.878-.539 5.898-.488v5.773h-.712c-2.2.072-4.337.374-6.26 1.59-1.572.991-2.624 2.352-2.967 4.169a25.328 25.328 0 0 0 -.458 3.899c-.073 2.304-.02 4.613-.02 6.977h-12.406v-.671c0-5.805-.022-11.612.013-17.417 0-1.558 0-3.15.318-4.665 1.278-6.262 4.382-11.215 10.519-13.789a15.175 15.175 0 0 1 6.146-1.25c1.913.032 3.838.008 5.829.008z" fill="#ececec"/></svg>
